file/marathon-petroleum.svg

<svg clip-rule="evenodd" fill-rule="evenodd" stroke-linejoin="round" stroke-miterlimit="1.41421" viewBox="0 0 560 400" xmlns="http://www.w3.org/2000/svg"><g fill-rule="nonzero" transform="matrix(2.62189 0 0 2.62189 -1122.02 -1313.8)"><path d="m511.852 539.23c-4.373.188-8.522 3.026-10.094 7.188v.031c-.005.013-.026.018-.031.031l-15.469 35.5-.031.031-.031.063c-.636 1.797-.914 3.922-.532 6.031v.063l.032.062 2.156 7.844 2.781 10.25.031.031v.031l.75 2.156v.063c1.542 3.937 5.495 6.644 9.594 6.906h67.813c4.245-.321 8.146-3.398 9.562-7.437v-.032l.031-.062 5.313-19.688.031-.062v-.063c.304-1.793.37-3.873-.25-5.75l-.031-.062-.031-.062-7.157-16.094-9.031-20.156c-.006-.014-.025-.018-.031-.031-1.536-3.588-4.969-5.975-8.719-6.563v-.219h-1.375-.062-45.157-.031z" fill="#fff"/><path d="m556.223 542.058c3.567.107 7.084 2.371 8.502 5.717l8.701 19.427 6.896 15.466c.486 1.469.458 3.286.194 4.852l-5.12 18.919c-1.161 3.311-4.559 5.978-8.004 6.239l-64.994-.008c-3.368-.213-6.767-2.545-8.026-5.759l-.712-2.075-2.687-9.836-2.078-7.564c-.317-1.736-.065-3.554.477-5.084l14.92-34.208c1.28-3.458 4.841-5.93 8.484-6.087h43.447" fill="#005daa"/><path d="m556.51 545.489c2.342.181 4.631 2.135 5.305 4.369l13.7 30.402c.836 1.723 2.276 3.802 1.712 6.122l-.766 3.138-4.134 15.278c-.534 2.254-2.851 4.071-5.046 4.442l-64.105.014c-2.04-.039-3.876-.816-5.111-2.559-1.239-2.03-5.917-20.221-5.917-20.221-.223-1.776.489-3.331 1.164-4.811l11.566-26.423 2.838-6.428c1.169-2.1 3.385-3.194 5.622-3.329z" fill="#fff"/><path d="m534.602 572.893 8.029-20.701 12.197-.006 10.823 35.282-14.931-.002-1.663-19.371-9.682 19.371-9.447.011-9.792-19.22-1.603 19.209-14.908.007 10.492-35.267 12.223-.006z" fill="#ed174f"/><path d="m93.591 68.739c-1.389 0-2.562 1.078-2.562 2.531 0 1.464 1.173 2.531 2.562 2.531 1.38 0 2.563-1.067 2.563-2.531 0-1.453-1.183-2.531-2.563-2.531zm0 .499c1.096 0 1.969.882 1.969 2.032 0 .623-.262 1.106-.656 1.468-.346.319-.8.532-1.313.532-1.106 0-1.968-.83-1.968-2 0-1.15.862-2.032 1.968-2.032zm.157.532c.344 0 .6.075.781.218.181.144.281.365.281.657 0 .267-.107.457-.25.593-.12.115-.293.184-.469.219l.782 1.219.031.062h-.594l-.031-.031-.719-1.187h-.438v1.218h-.531v-2.968zm-.063.468h-.563v.813h.469c.182 0 .356-.04.469-.094s.187-.137.187-.344c0-.163-.082-.227-.187-.281s-.228-.094-.375-.094zm-23.712-17.461c-.706.047-1.378.229-1.937.532-1.104.68-1.373 1.91-1.469 3.093.054 2-.362 4.393 1.094 5.844 1.285.938 2.851.893 4.375.5 1.459-.434 1.949-1.957 2.031-3.312.064-1.897.278-4.092-.812-5.625-.847-.808-2.105-1.11-3.282-1.032zm10.578 6.512v.002-.002l.003-6.332h2.205v9.903h-3.24l-1.722-5.944v5.944h-2.126v-9.903h3.24zm-20.019-2.389 2.12.016.012-3.95 2.41-.009v9.884l-2.41.014v-3.848l-2.127.001-.016 3.83-2.427.002.007-9.884 2.417-.003.013 3.945zm-39.848 1.164 1.058-5.083 3.092.002 1.239 9.858-2.395.004-.742-6.375c-.393 2.093-.694 4.267-1.034 6.375l-2.488.007-1.057-6.352c-.299 2.094-.496 4.245-.746 6.352l-2.433.003 1.351-9.879 3.094.003zm36.545-2.984h-2.127l-.011 7.761-2.359-.002-.002-7.774h-2.121l.003-2.107h6.618v2.122zm-28.443-2.084h3.687l2.157 9.844h-2.532l-.281-1.719h-2.312l-.344 1.719h-2.438zm20.062 0 2.157 9.844h-2.532l-.281-1.719h-2.312l-.344 1.719h-2.406l2.031-9.844zm-10.625 9.844h-2.343v-9.844s.946-.092 2.062-.094c1.116-.002 2.395.073 3.125.375 1.426.713 1.365 2.481 1.281 3.813-.152.726-.435 1.618-1.25 1.875l.032.25 1.375 3.625h-2.438s-1.18-3.479-1.187-3.5c-.172-.093-.485-.094-.657 0zm32.063-8c.352-.016.73.065.969.281.673 1.179.363 3.248.312 4.813-.077.383-.164.798-.531 1-.445.2-1.134.2-1.531-.125-.37-.492-.305-.608-.407-1.219-.205-1.268-.382-3.208.282-4.375.221-.231.554-.36.906-.375zm-38.875 4.406c-.245-1.406-.423-2.879-.75-4.219l-.781 4.219zm16.375 0c-.246-1.406-.425-2.879-.75-4.219l-.781 4.219zm-8.5-1.812c.359-.054.42-.272.562-.469.207-.553.194-1.325-.218-1.781-.179-.131-.522-.179-.813-.188-.291-.009-.531.031-.531.031v2.407z" fill="#005daa" transform="translate(485.295 538.871)"/></g></svg>

<?xml version="1.0" encoding="UTF-8" standalone="no"?>
<!DOCTYPE svg PUBLIC "-//W3C//DTD SVG 1.1//EN" "http://www.w3.org/Graphics/SVG/1.1/DTD/svg11.dtd">
<svg width="100%" height="100%" viewBox="0 0 560 400" version="1.1" xmlns="http://www.w3.org/2000/svg" xmlns:xlink="http://www.w3.org/1999/xlink" xml:space="preserve" xmlns:serif="http://www.serif.com/" style="fill-rule:evenodd;clip-rule:evenodd;stroke-linejoin:round;stroke-miterlimit:1.41421;">
    <g transform="matrix(2.62189,0,0,2.62189,-1122.02,-1313.8)">
        <path id="path60" d="M511.852,539.23C507.479,539.418 503.33,542.256 501.758,546.418L501.758,546.449C501.753,546.462 501.732,546.467 501.727,546.48L486.258,581.98L486.227,582.011L486.196,582.074C485.56,583.871 485.282,585.996 485.664,588.105L485.664,588.168L485.696,588.23L487.852,596.074L490.633,606.324L490.664,606.355L490.664,606.386L491.414,608.542L491.414,608.605C492.956,612.542 496.909,615.249 501.008,615.511L568.821,615.511C573.066,615.19 576.967,612.113 578.383,608.074L578.383,608.042L578.414,607.98L583.727,588.292L583.758,588.23L583.758,588.167C584.062,586.374 584.128,584.294 583.508,582.417L583.477,582.355L583.446,582.293L576.289,566.199L567.258,546.043C567.252,546.029 567.233,546.025 567.227,546.012C565.691,542.424 562.258,540.037 558.508,539.449L558.508,539.23L557.133,539.23L557.071,539.23L511.914,539.23L511.883,539.23L511.852,539.23L511.852,539.23Z" style="fill:white;fill-rule:nonzero;"/>
        <path id="path64" d="M556.223,542.058C559.79,542.165 563.307,544.429 564.725,547.775L573.426,567.202L580.322,582.668C580.808,584.137 580.78,585.954 580.516,587.52L575.396,606.439C574.235,609.75 570.837,612.417 567.392,612.678L502.398,612.67C499.03,612.457 495.631,610.125 494.372,606.911L493.66,604.836L490.973,595L488.895,587.436C488.578,585.7 488.83,583.882 489.372,582.352L504.292,548.144C505.572,544.686 509.133,542.214 512.776,542.057L556.223,542.057" style="fill:rgb(0,93,170);fill-rule:nonzero;"/>
        <path id="path72" d="M556.51,545.489C558.852,545.67 561.141,547.624 561.815,549.858L575.515,580.26C576.351,581.983 577.791,584.062 577.227,586.382L576.461,589.52L572.327,604.798C571.793,607.052 569.476,608.869 567.281,609.24L503.176,609.254C501.136,609.215 499.3,608.438 498.065,606.695C496.826,604.665 492.148,586.474 492.148,586.474C491.925,584.698 492.637,583.143 493.312,581.663L504.878,555.24L507.716,548.812C508.885,546.712 511.101,545.618 513.338,545.483L556.51,545.489" style="fill:white;fill-rule:nonzero;"/>
        <path id="path80" d="M534.602,572.893L542.631,552.192L554.828,552.186L565.651,587.468L550.72,587.466L549.057,568.095L539.375,587.466L529.928,587.477L520.136,568.257L518.533,587.466L503.625,587.473L514.117,552.206L526.34,552.2L534.602,572.893" style="fill:rgb(237,23,79);fill-rule:nonzero;"/>
        <g transform="matrix(1,0,0,1,485.295,538.871)">
            <path id="path88" d="M93.591,68.739C92.202,68.739 91.029,69.817 91.029,71.27C91.029,72.734 92.202,73.801 93.591,73.801C94.971,73.801 96.154,72.734 96.154,71.27C96.154,69.817 94.971,68.739 93.591,68.739ZM93.591,69.238C94.687,69.238 95.56,70.12 95.56,71.27C95.56,71.893 95.298,72.376 94.904,72.738C94.558,73.057 94.104,73.27 93.591,73.27C92.485,73.27 91.623,72.44 91.623,71.27C91.623,70.12 92.485,69.238 93.591,69.238ZM93.748,69.77C94.092,69.77 94.348,69.845 94.529,69.988C94.71,70.132 94.81,70.353 94.81,70.645C94.81,70.912 94.703,71.102 94.56,71.238C94.44,71.353 94.267,71.422 94.091,71.457L94.873,72.676L94.904,72.738L94.904,72.738L94.31,72.738L94.279,72.707L93.56,71.52L93.122,71.52L93.122,72.738L92.591,72.738L92.591,69.77L93.748,69.77ZM93.685,70.238L93.122,70.238L93.122,71.051L93.591,71.051C93.773,71.051 93.947,71.011 94.06,70.957C94.173,70.903 94.247,70.82 94.247,70.613C94.247,70.45 94.165,70.386 94.06,70.332C93.955,70.278 93.832,70.238 93.685,70.238ZM69.973,52.777C69.267,52.824 68.595,53.006 68.036,53.309C66.932,53.989 66.663,55.219 66.567,56.402C66.621,58.402 66.205,60.795 67.661,62.246C68.946,63.184 70.512,63.139 72.036,62.746C73.495,62.312 73.985,60.789 74.067,59.434C74.131,57.537 74.345,55.342 73.255,53.809C72.408,53.001 71.15,52.699 69.973,52.777ZM80.551,59.289L80.551,59.291L80.551,59.289L80.554,52.957L82.759,52.957L82.759,62.86L79.519,62.86L77.797,56.916L77.797,62.86L75.671,62.86L75.671,52.957L78.911,52.957L80.551,59.289ZM60.532,56.9L62.652,56.916L62.664,52.966L65.074,52.957L65.074,62.841L62.664,62.855L62.664,59.007L60.537,59.008L60.521,62.838L58.094,62.84L58.101,52.956L60.518,52.953L60.531,56.898L60.532,56.9ZM20.684,58.064L21.742,52.981L24.834,52.983L26.073,62.841L23.678,62.845L22.936,56.47C22.543,58.563 22.242,60.737 21.902,62.845L19.414,62.852L18.357,56.5C18.058,58.594 17.861,60.745 17.611,62.852L15.178,62.855L16.529,52.976L19.623,52.979L20.684,58.064L20.684,58.064ZM57.229,55.08L55.102,55.08L55.091,62.841L52.732,62.839L52.73,55.065L50.609,55.065L50.612,52.958L57.23,52.958L57.23,55.08L57.229,55.08ZM28.786,52.996L32.473,52.996L34.63,62.84L32.098,62.84L31.817,61.121L29.505,61.121L29.161,62.84L26.723,62.84L28.786,52.996ZM48.848,52.996L51.005,62.84L48.473,62.84L48.192,61.121L45.88,61.121L45.536,62.84L43.13,62.84L45.161,52.996L48.848,52.996ZM38.223,62.84L35.88,62.84L35.88,52.996C35.88,52.996 36.826,52.904 37.942,52.902L37.942,52.902C39.058,52.9 40.337,52.975 41.067,53.277C42.493,53.99 42.432,55.758 42.348,57.09C42.196,57.816 41.913,58.708 41.098,58.965L41.13,59.215L42.505,62.84L40.067,62.84C40.067,62.84 38.887,59.361 38.88,59.34C38.708,59.247 38.395,59.246 38.223,59.34L38.223,62.84ZM70.286,54.84C70.638,54.824 71.016,54.905 71.255,55.121C71.928,56.3 71.618,58.369 71.567,59.934C71.49,60.317 71.403,60.732 71.036,60.934C70.591,61.134 69.902,61.134 69.505,60.809C69.135,60.317 69.2,60.201 69.098,59.59C68.893,58.322 68.716,56.382 69.38,55.215C69.601,54.984 69.934,54.855 70.286,54.84ZM31.411,59.246C31.166,57.84 30.988,56.367 30.661,55.027L29.88,59.246L31.411,59.246ZM47.786,59.246C47.54,57.84 47.361,56.367 47.036,55.027L46.255,59.246L47.786,59.246ZM39.286,57.434C39.645,57.38 39.706,57.162 39.848,56.965C40.055,56.412 40.042,55.64 39.63,55.184C39.451,55.053 39.108,55.005 38.817,54.996L38.817,54.996C38.526,54.987 38.286,55.027 38.286,55.027L38.286,57.434L39.286,57.434Z" style="fill:rgb(0,93,170);fill-rule:nonzero;"/>
        </g>
    </g>
</svg>
